X:500
T: Girl for Me [The]
S: "The Roche Collection of Traditional Irish Music" [III/30/98]
L: 1/8
M: 6/8
R: jig
K: G
A | BBB GBd | GBd BAG | AAA edB | ged ecA |
BBB GBd | GBd BAG | AAA A2B | GG/G/G G2 :|
g | fed efg | fed cAG | AAA edB | ged ecA |
fed efg | fed cAG | AAA A2B | GG/G/G G2 :|
